X:1
T: Mar Castle
C:J. Scott Skinner
R:Strathspey
Q: 128
K:E
M:4/4
L:1/16
|:B,3E GE3 BE3 E4|c3e B3e GF3 F3G|B,3E GE3 BE3 E4|c3e B3e GE3 E3z|
B,3E GE3 BE3 E4|c3e B3e GF3 F3G|B,3E GE3 BE3 E4|c3e B3e GE3 E3a|
g3e b3g e'3b g3e|d3B f3d a3f d3B|g3e b3g e'3b g3e|abc'2 f3b ge3 e3a|
gfe2 b3g e'2bg ((3e2B2G2) |dcB2 f3d ((3a2f2d2) ((3B2A2F2) |((3E2G2B2) ((3e2g2b2) ((3e'2g'2b'2) e''4|c'3e' b3e' ge3 e3z:|
